X:1
T:Die Lorelei
T:Die schönsten Volkslieder, S. 12
T:Deutsches Volkslied
T:Heinrich Heine
L:1/8
M:6/8
K:D
V:1 treble nm="Piano" snm="Pno."
V:1
 z4 z A | A>BA dcB | A3 G2 G | F2 F EDE | F3 z z2 | z4 z A | A>BA dcB | A3 G2 G | F2 F AGE | %9
w: 1.Ich|weiß nicht was soll es be-|deu- ten, daß|ich so tr- au- rig|bin.|Ein|Mär- chen aus a- l- ten|Zei- ten, das|kommt mir nicht aus dem|
w: 3.Die|sch- ö- nste Jung- fr- au|sitz- et dort|ob- en wu- n- der-|bar|Ihr|gol- den- es Ge- schm- eide|blit- zet, sie|kämmt ihr go- lde- nes|
w: 5.Den|Sch- i- ffer im klei- nen|Schif- fe er-|greift es mit wil- dem|Weh.|er|schaut nicht die Fe- l- sen-|rif- fe, er|schaut nur hinauf in die|
 D3 z2 F | E>FE AEA | c3 B2 B | A2 [A^A] ^G=AB | A3 z2 A | A>BA dcB | A2 f e2 e | d2 d cBc | %17
w: Sinn. 2.Die|Lu- ft ist kühl und es|dun- kelt und|ru- hig flie- ßt der|Rhein. der|Gip- fel des Be- r- ges|fun- k- elt im|A- bend- so- n- nen-|
w: Haar. 4.Sie|kä- mmt es mit gol- de-|nem Kam- me|Und singt- ein- Lied- da-|bei. Das|hat ei- ne wu- und- er-|sa- me ge- wal-|tig- ge Me- elo- lo-|
w: Höh. 6.Ich|gla- u- be, die Wel- len|ver- schlingen am|En- de Schif- fer und|Kahn. Und|das hat mit ih- h- rem|S- in- gen die|Lo- re- le- i ge-|
 d3 z z2 |] %18
w: schein.|
w: dei.|
w: tan.|

